X:35
T:Castlerock Road (G)
C:Damien O'Kane
Z:Gwen (2020-12)
D:Brighde Chaimbeul, Ross Ainslie & Steven Byrnes live at Celtic Colours: https://www.youtube.com/watch?v=aiueVh23lUo (2019)
N:Tonalité originale en fa
R:Reel
M:2/2
Q:1/2=120
K:G
|: DDBD DEGB | AGAB GDEG | cEGc BDGB | A2AB AGFE |
   DDBD DEGB | AGAB GDEG | cEGc BDGB |1 AGAB G2GE :|2 AGAB G3 B |
|: cEGc BDGB | AGAB GDEG | cEGc BAG2- | GFDC DEGB |
   cEGc BDGB |1 AGAB GDEG | cEGc BDGB | AGAB G3 B :|2
                AGAB GDDD | DEGA BcdB | AGAB G2GF |
|: G2dB GdBG | AGdB GdBG | GGEc GEcG | FGdF GdFG |
   E2ED EFGA | B2B2 AGEC | DEGA BcdB |1 AGAB G2GF :|2 AGAB G2GE ||

